static/img/kroki/4e97f9aba20b7c6de868abd3e60372d3.svg

<?xml version="1.0" encoding="us-ascii" standalone="no"?><svg xmlns="http://www.w3.org/2000/svg" xmlns:xlink="http://www.w3.org/1999/xlink" contentStyleType="text/css" height="374px" preserveAspectRatio="none" style="width:556px;height:374px;" version="1.1" viewBox="0 0 556 374" width="556px" zoomAndPan="magnify"><defs/><g><!--class azure_authorization_role_definition--><g id="elem_azure_authorization_role_definition"><rect codeLine="23" fill="#3D176E" height="39.7891" id="azure_authorization_role_definition" rx="2.5" ry="2.5" style="stroke:#000D19;stroke-width:0.5;" width="339" x="171.5" y="328.58"/><ellipse cx="186.5" cy="348.4745" fill="#ADD1B2" rx="11" ry="11" style="stroke:#181818;stroke-width:1.0;"/><path d="M189.4688,354.1152 Q188.8906,354.412 188.25,354.5527 Q187.6094,354.7089 186.9063,354.7089 Q184.4063,354.7089 183.0781,353.0683 Q181.7656,351.412 181.7656,348.287 Q181.7656,345.162 183.0781,343.5058 Q184.4063,341.8495 186.9063,341.8495 Q187.6094,341.8495 188.25,342.0058 Q188.9063,342.162 189.4688,342.4589 L189.4688,345.1777 Q188.8438,344.5995 188.25,344.3339 Q187.6563,344.0527 187.0313,344.0527 Q185.6875,344.0527 185,345.1308 Q184.3125,346.1933 184.3125,348.287 Q184.3125,350.3808 185,351.4589 Q185.6875,352.5214 187.0313,352.5214 Q187.6563,352.5214 188.25,352.2558 Q188.8438,351.9745 189.4688,351.3964 L189.4688,354.1152 Z " fill="#000000"/><text fill="#D9B8FF" font-family="Helvetica" font-size="17" lengthAdjust="spacing" textLength="297" x="205.5" y="354.3598">azure_authorization_role_definition</text></g><!--class microsoft_resource--><g id="elem_microsoft_resource"><rect codeLine="26" fill="#3D176E" height="39.7891" id="microsoft_resource" rx="2.5" ry="2.5" style="stroke:#000D19;stroke-width:0.5;" width="200" x="7" y="167.79"/><ellipse cx="22" cy="187.6845" fill="#ADD1B2" rx="11" ry="11" style="stroke:#181818;stroke-width:1.0;"/><path d="M24.9688,193.3252 Q24.3906,193.622 23.75,193.7627 Q23.1094,193.9189 22.4063,193.9189 Q19.9063,193.9189 18.5781,192.2783 Q17.2656,190.622 17.2656,187.497 Q17.2656,184.372 18.5781,182.7158 Q19.9063,181.0595 22.4063,181.0595 Q23.1094,181.0595 23.75,181.2158 Q24.4063,181.372 24.9688,181.6689 L24.9688,184.3877 Q24.3438,183.8095 23.75,183.5439 Q23.1563,183.2627 22.5313,183.2627 Q21.1875,183.2627 20.5,184.3408 Q19.8125,185.4033 19.8125,187.497 Q19.8125,189.5908 20.5,190.6689 Q21.1875,191.7314 22.5313,191.7314 Q23.1563,191.7314 23.75,191.4658 Q24.3438,191.1845 24.9688,190.6064 L24.9688,193.3252 Z " fill="#000000"/><text fill="#D9B8FF" font-family="Helvetica" font-size="17" lengthAdjust="spacing" textLength="158" x="41" y="193.5698">microsoft_resource</text></g><!--class phantom_resource--><g id="elem_phantom_resource"><rect codeLine="29" fill="#3D176E" height="39.7891" id="phantom_resource" rx="2.5" ry="2.5" style="stroke:#000D19;stroke-width:0.5;" width="198" x="242" y="167.79"/><ellipse cx="257" cy="187.6845" fill="#ADD1B2" rx="11" ry="11" style="stroke:#181818;stroke-width:1.0;"/><path d="M259.9688,193.3252 Q259.3906,193.622 258.75,193.7627 Q258.1094,193.9189 257.4063,193.9189 Q254.9063,193.9189 253.5781,192.2783 Q252.2656,190.622 252.2656,187.497 Q252.2656,184.372 253.5781,182.7158 Q254.9063,181.0595 257.4063,181.0595 Q258.1094,181.0595 258.75,181.2158 Q259.4063,181.372 259.9688,181.6689 L259.9688,184.3877 Q259.3438,183.8095 258.75,183.5439 Q258.1563,183.2627 257.5313,183.2627 Q256.1875,183.2627 255.5,184.3408 Q254.8125,185.4033 254.8125,187.497 Q254.8125,189.5908 255.5,190.6689 Q256.1875,191.7314 257.5313,191.7314 Q258.1563,191.7314 258.75,191.4658 Q259.3438,191.1845 259.9688,190.6064 L259.9688,193.3252 Z " fill="#000000"/><text fill="#D9B8FF" font-family="Helvetica" font-size="17" lengthAdjust="spacing" textLength="156" x="276" y="193.5698">phantom_resource</text></g><!--class resource--><g id="elem_resource"><rect codeLine="32" fill="#3D176E" height="39.7891" id="resource" rx="2.5" ry="2.5" style="stroke:#000D19;stroke-width:0.5;" width="113" x="284.5" y="7"/><ellipse cx="299.5" cy="26.8945" fill="#ADD1B2" rx="11" ry="11" style="stroke:#181818;stroke-width:1.0;"/><path d="M302.4688,32.5352 Q301.8906,32.832 301.25,32.9727 Q300.6094,33.1289 299.9063,33.1289 Q297.4063,33.1289 296.0781,31.4883 Q294.7656,29.832 294.7656,26.707 Q294.7656,23.582 296.0781,21.9258 Q297.4063,20.2695 299.9063,20.2695 Q300.6094,20.2695 301.25,20.4258 Q301.9063,20.582 302.4688,20.8789 L302.4688,23.5977 Q301.8438,23.0195 301.25,22.7539 Q300.6563,22.4727 300.0313,22.4727 Q298.6875,22.4727 298,23.5508 Q297.3125,24.6133 297.3125,26.707 Q297.3125,28.8008 298,29.8789 Q298.6875,30.9414 300.0313,30.9414 Q300.6563,30.9414 301.25,30.6758 Q301.8438,30.3945 302.4688,29.8164 L302.4688,32.5352 Z " fill="#000000"/><text fill="#D9B8FF" font-family="Helvetica" font-size="17" lengthAdjust="spacing" textLength="71" x="318.5" y="32.7798">resource</text></g><!--class role--><g id="elem_role"><rect codeLine="35" fill="#3D176E" height="39.7891" id="role" rx="2.5" ry="2.5" style="stroke:#000D19;stroke-width:0.5;" width="74" x="475" y="167.79"/><ellipse cx="490" cy="187.6845" fill="#ADD1B2" rx="11" ry="11" style="stroke:#181818;stroke-width:1.0;"/><path d="M492.9688,193.3252 Q492.3906,193.622 491.75,193.7627 Q491.1094,193.9189 490.4063,193.9189 Q487.9063,193.9189 486.5781,192.2783 Q485.2656,190.622 485.2656,187.497 Q485.2656,184.372 486.5781,182.7158 Q487.9063,181.0595 490.4063,181.0595 Q491.1094,181.0595 491.75,181.2158 Q492.4063,181.372 492.9688,181.6689 L492.9688,184.3877 Q492.3438,183.8095 491.75,183.5439 Q491.1563,183.2627 490.5313,183.2627 Q489.1875,183.2627 488.5,184.3408 Q487.8125,185.4033 487.8125,187.497 Q487.8125,189.5908 488.5,190.6689 Q489.1875,191.7314 490.5313,191.7314 Q491.1563,191.7314 491.75,191.4658 Q492.3438,191.1845 492.9688,190.6064 L492.9688,193.3252 Z " fill="#000000"/><text fill="#D9B8FF" font-family="Helvetica" font-size="17" lengthAdjust="spacing" textLength="32" x="509" y="193.5698">role</text></g><!--reverse link microsoft_resource to azure_authorization_role_definition--><g id="link_microsoft_resource_azure_authorization_role_definition"><path codeLine="38" d="M150.1238,217.9481 C195.0938,248.4681 267.64,297.69 312.67,328.25 " fill="none" id="microsoft_resource-backto-azure_authorization_role_definition" style="stroke:#FFAF37;stroke-width:2.0;"/><polygon fill="none" points="135.23,207.84,146.7545,222.9127,153.4932,212.9835,135.23,207.84" style="stroke:#FFAF37;stroke-width:2.0;"/></g><!--reverse link phantom_resource to azure_authorization_role_definition--><g id="link_phantom_resource_azure_authorization_role_definition"><path codeLine="39" d="M341,225.84 C341,256.36 341,297.69 341,328.25 " fill="none" id="phantom_resource-backto-azure_authorization_role_definition" style="stroke:#FFAF37;stroke-width:2.0;"/><polygon fill="none" points="341,207.84,335,225.84,347,225.84,341,207.84" style="stroke:#FFAF37;stroke-width:2.0;"/></g><!--reverse link role to azure_authorization_role_definition--><g id="link_role_azure_authorization_role_definition"><path codeLine="40" d="M478.1811,220.0897 C445.3211,250.6097 394.61,297.69 361.7,328.25 " fill="none" id="role-backto-azure_authorization_role_definition" style="stroke:#FFAF37;stroke-width:2.0;"/><polygon fill="none" points="491.37,207.84,474.0979,215.6934,482.2644,224.4859,491.37,207.84" style="stroke:#FFAF37;stroke-width:2.0;"/></g><!--reverse link resource to microsoft_resource--><g id="link_resource_microsoft_resource"><path codeLine="41" d="M297.8762,57.1581 C252.9062,87.6781 180.36,136.9 135.33,167.46 " fill="none" id="resource-backto-microsoft_resource" style="stroke:#FFAF37;stroke-width:2.0;"/><polygon fill="none" points="312.77,47.05,294.5068,52.1935,301.2455,62.1227,312.77,47.05" style="stroke:#FFAF37;stroke-width:2.0;"/></g><!--reverse link resource to phantom_resource--><g id="link_resource_phantom_resource"><path codeLine="42" d="M341,65.05 C341,95.57 341,136.9 341,167.46 " fill="none" id="resource-backto-phantom_resource" style="stroke:#FFAF37;stroke-width:2.0;"/><polygon fill="none" points="341,47.05,335,65.05,347,65.05,341,47.05" style="stroke:#FFAF37;stroke-width:2.0;"/></g><!--reverse link resource to role--><g id="link_resource_role"><path codeLine="43" d="M374.8189,59.2997 C407.6789,89.8197 458.39,136.9 491.3,167.46 " fill="none" id="resource-backto-role" style="stroke:#FFAF37;stroke-width:2.0;"/><polygon fill="none" points="361.63,47.05,370.7356,63.6959,378.9021,54.9034,361.63,47.05" style="stroke:#FFAF37;stroke-width:2.0;"/></g><!--SRC=[bP1DJm8n48Rl-okQU2O1YGA95oGnUY56l6_ATiesx7Osqra9gFzT5j2KTldms7cVzdsckL4WeAnuBKeevq0kSKjZAqco56CYN4smG18tMalT7uJX4rg-24nb2U8PYWzWaycGUCzDjhJWdBZreaUPBHU4jLNxvvcaTTi8B7lKf93EZPd9p6i6JqQDvaEjGp9yzAQlUeDxY30a1NH0kjskwer2v6BLsRt_Y9dPWEZvdpP5XaWpgjXHPoqRmfEC5ltDJpg-IgMCNOWxR_QsTo8BT3IVvLBXgg6rB9nVunW8aDSLJAAjO3HKUj0Alvo2awpvEY4tDK4gQywHp4QoGPiI5f0gqCQQvYm-a-JxW9Sc8tIeEILmM5C6VbhbqZAMhLdhR5kqFxUy-_3LwNIkyKkYskklxWp-WHytnDOX4Qg5ULEG_000]--></g></svg>

<svg xmlns="http://www.w3.org/2000/svg" width="556" height="374" viewBox="0 0 556 374"><rect width="339" height="39.789" x="171.5" y="328.58" fill="#3D176E" rx="2.5" ry="2.5" style="stroke:#000d19;stroke-width:.5"/><circle cx="186.5" cy="348.474" r="11" fill="#ADD1B2" style="stroke:#181818;stroke-width:1"/><path d="M189.469 354.115q-.578.297-1.219.438-.64.156-1.344.156-2.5 0-3.828-1.64-1.312-1.657-1.312-4.782t1.312-4.781q1.328-1.656 3.828-1.656.703 0 1.344.156.656.156 1.219.453v2.719q-.625-.579-1.219-.844-.594-.281-1.219-.281-1.344 0-2.031 1.078-.687 1.062-.687 3.156t.687 3.172q.688 1.062 2.031 1.062.625 0 1.219-.265.594-.281 1.219-.86z"/><text x="205.5" y="354.36" fill="#D9B8FF" font-family="Helvetica" font-size="17" textLength="297">azure_authorization_role_definition</text><rect width="200" height="39.789" x="7" y="167.79" fill="#3D176E" rx="2.5" ry="2.5" style="stroke:#000d19;stroke-width:.5"/><circle cx="22" cy="187.685" r="11" fill="#ADD1B2" style="stroke:#181818;stroke-width:1"/><path d="M24.969 193.325q-.578.297-1.219.438-.64.156-1.344.156-2.5 0-3.828-1.64-1.312-1.657-1.312-4.782t1.312-4.781q1.328-1.656 3.828-1.656.703 0 1.344.156.656.156 1.219.453v2.719q-.625-.578-1.219-.844-.594-.281-1.219-.281-1.343 0-2.031 1.078-.687 1.062-.687 3.156t.687 3.172q.688 1.062 2.031 1.062.625 0 1.219-.265.594-.281 1.219-.86z"/><text x="41" y="193.57" fill="#D9B8FF" font-family="Helvetica" font-size="17" textLength="158">microsoft_resource</text><rect width="198" height="39.789" x="242" y="167.79" fill="#3D176E" rx="2.5" ry="2.5" style="stroke:#000d19;stroke-width:.5"/><circle cx="257" cy="187.685" r="11" fill="#ADD1B2" style="stroke:#181818;stroke-width:1"/><path d="M259.969 193.325q-.578.297-1.219.438-.64.156-1.344.156-2.5 0-3.828-1.64-1.312-1.657-1.312-4.782t1.312-4.781q1.328-1.656 3.828-1.656.703 0 1.344.156.656.156 1.219.453v2.719q-.625-.578-1.219-.844-.594-.281-1.219-.281-1.344 0-2.031 1.078-.687 1.062-.687 3.156t.687 3.172q.688 1.062 2.031 1.062.625 0 1.219-.265.594-.281 1.219-.86z"/><text x="276" y="193.57" fill="#D9B8FF" font-family="Helvetica" font-size="17" textLength="156">phantom_resource</text><rect width="113" height="39.789" x="284.5" y="7" fill="#3D176E" rx="2.5" ry="2.5" style="stroke:#000d19;stroke-width:.5"/><circle cx="299.5" cy="26.895" r="11" fill="#ADD1B2" style="stroke:#181818;stroke-width:1"/><path d="M302.469 32.535q-.578.297-1.219.438-.64.156-1.344.156-2.5 0-3.828-1.64-1.312-1.657-1.312-4.782t1.312-4.781q1.328-1.656 3.828-1.656.703 0 1.344.156.656.156 1.219.453v2.719q-.625-.578-1.219-.844-.594-.281-1.219-.281-1.344 0-2.031 1.078-.687 1.062-.687 3.156t.687 3.172q.688 1.062 2.031 1.062.625 0 1.219-.265.594-.281 1.219-.86z"/><text x="318.5" y="32.78" fill="#D9B8FF" font-family="Helvetica" font-size="17" textLength="71">resource</text><rect width="74" height="39.789" x="475" y="167.79" fill="#3D176E" rx="2.5" ry="2.5" style="stroke:#000d19;stroke-width:.5"/><circle cx="490" cy="187.685" r="11" fill="#ADD1B2" style="stroke:#181818;stroke-width:1"/><path d="M492.969 193.325q-.578.297-1.219.438-.64.156-1.344.156-2.5 0-3.828-1.64-1.312-1.657-1.312-4.782t1.312-4.781q1.328-1.656 3.828-1.656.703 0 1.344.156.656.156 1.219.453v2.719q-.625-.578-1.219-.844-.594-.281-1.219-.281-1.344 0-2.031 1.078-.687 1.062-.687 3.156t.687 3.172q.688 1.062 2.031 1.062.625 0 1.219-.265.594-.281 1.219-.86z"/><text x="509" y="193.57" fill="#D9B8FF" font-family="Helvetica" font-size="17" textLength="32">role</text><g fill="none"><path d="M150.124 217.948c44.97 30.52 117.516 79.742 162.546 110.302" style="stroke:#ffaf37;stroke-width:2"/><path d="m135.23 207.84 11.525 15.073 6.738-9.93z" style="stroke:#ffaf37;stroke-width:2"/></g><path fill="none" d="M341 225.84v102.41m0-120.41-6 18h12zm137.181 12.25c-32.86 30.52-83.571 77.6-116.481 108.16m129.67-120.41-17.272 7.853 8.166 8.793z" style="stroke:#ffaf37;stroke-width:2"/><g fill="none"><path d="M297.876 57.158C252.906 87.678 180.36 136.9 135.33 167.46" style="stroke:#ffaf37;stroke-width:2"/><path d="m312.77 47.05-18.263 5.144 6.738 9.929z" style="stroke:#ffaf37;stroke-width:2"/></g><path fill="none" d="M341 65.05v102.41m0-120.41-6 18h12zm33.819 12.25c32.86 30.52 83.571 77.6 116.481 108.16M361.63 47.05l9.106 16.646 8.166-8.793z" style="stroke:#ffaf37;stroke-width:2"/></svg>
